X:330
T: Freiheit mein Vergngen (70), S. 204
N: T0219
O: Luxemburg
S: Singendes Volk, Esch-Alzette 1937 posth.]
N: Esch-Alzette, fff Anna Mller, 1914;
N: Blascheid, Johann Hitting, 1902
R: Liebeslieder]
M: 4/4
L: 1/8
K: C
G2 | G2G2G2G2 | G2eec2
ee | d3BddcA | G2G2G2
GF | E2d2d
cBA | G2e2e2z2 |
G3GA2B2 | c2e2G2
ee | d3BddcA | G2G2G2

@@@ Tune index: 8384
